X:1
T: Old Joe Clarke
C: Traditional
M: 4/4
L: 1/16
K: C
"G7"d2e2f2e2d2c2B2G2|
d2e2f2e2"F"d8|
"G7"d2e2f2e2d2c2B2G2|
"G"G2B2"F"A2F2"G"G8|
"G7"d2e2f2e2d2c2B2G2|
d2e2f2e2"F"d8|
"G7"d2e2f2e2d2c2B2G2|
"G"G2B2"F"A2F2"G"G8|
"G"GGGGGGGGd2cdB2G2|
G2B2A2G2"F"A8|
"G"GGGGGGGGd2cdB2G2|
"G"G2B2"F"A2F2"G"G8|
"G"GGGGGGGGd2cdB2G2|
G2B2A2G2"F"A8|
"G"GGGGGGGGd2cdB2G2|
"G"G2B2"F"A2F2"G"G8|]